!!!COM: Fe/licien David
!!!CNT: Francais
!!!TXO: Francais
!!!OTL: Le Mourant
!!!LYR: Sylvain St. Etienne
!!!ENC: Jacob Pegg
!!!YOR: Romantic French Song 1830-1870, David Tunley, ed., New York: Garland Publishing, Inc., 1995
!!!ODT: 1847/
!!NB: Vocal melody and text only encoded.
!!NB: Only first strophe encoded.
**kern	**silbe
*clef G2	*
*k[f#c#g#d#]	*
*M6/8	*
=1	=1
2.r	.
=2	=2
2.r	.
=3	=3
2.r	.
=4	=4
2.r	.
=5	=5
{4.b	{Comme
4b	u-
8b	-ne
=6	=6
[4.b	fleur
4b]	|
8b	que
=7	=7
4cc#	la
8cc#	bise
(8cc#	a
8b)	|
8cc#	fle/-
=8	=8
(4.dd#	-tri-
eeq	|
4.ee)	-e
=9	=9
4.b	De/-
4b	ja\
8a	s'ef-
=10	=10
4.g#	-feuille
4.a	he/-
=11	=11
4g#	-las!
8g#	mon
4f#	der-
8f#	-nier
=12	=12
2.e}	jour;}
=13	=13
{4.b	{Mais
4b#	sans
8b#	re-
=14	=14
[4.cc#	-grets
8cc#]	|
(8b#	je
8cc#)	|
=15	=15
4ee	quit-
8ee	-te-
4dd#	-rai
8ee	la
=16	=16
(4dd#	vi-
16cc#	|
16b#)	|
4.cc#	-e,
=17	=17
4.ee	Car
4dd#	j'en-
8cc#	-tre-
=18	=18
4.ff#}	-vois}
8r	.
{8b	{dans
8b	une
=19	=19
[4.ee	au-
8ee]	|
8dd#	-tre
8cc#	pa-
=20	=20
4.dd#	-tri-
4.b	-e
=21	=21
4.b	Plus
4cc#	de
8cc#	bon-
=22	=22
4.dd#	-heur
4.ee	et
=23	=23
(4.ee	plus
4dd#)	|
8ee	d'a-
=24	=24
2.ee}	-mour}
*-	*-
